material/.icons/material/hammer-wrench.svg

<svg xmlns="http://www.w3.org/2000/svg" viewBox="0 0 24 24"><path d="M13.78 15.3l6 6 2.11-2.16-6-6-2.11 2.16m3.72-5.2c-.39 0-.81-.05-1.14-.19L4.97 21.25l-2.11-2.11 7.41-7.4L8.5 9.96l-.72.7-1.45-1.41v2.86l-.7.7-3.52-3.56.7-.7h2.81l-1.4-1.41 3.56-3.56a2.976 2.976 0 014.22 0L9.89 5.74l1.41 1.4-.71.71 1.79 1.78 1.82-1.88c-.14-.33-.2-.75-.2-1.12a3.49 3.49 0 013.5-3.52c.59 0 1.11.14 1.58.42L16.41 6.2l1.5 1.5 2.67-2.67c.28.47.42.97.42 1.6 0 1.92-1.55 3.47-3.5 3.47z"/></svg>

<?xml version="1.0" encoding="UTF-8"?><!DOCTYPE svg PUBLIC "-//W3C//DTD SVG 1.1//EN" "http://www.w3.org/Graphics/SVG/1.1/DTD/svg11.dtd"><svg xmlns="http://www.w3.org/2000/svg" xmlns:xlink="http://www.w3.org/1999/xlink" version="1.1" id="mdi-hammer-wrench" width="24" height="24" viewBox="0 0 24 24"><path d="M13.78 15.3L19.78 21.3L21.89 19.14L15.89 13.14L13.78 15.3M17.5 10.1C17.11 10.1 16.69 10.05 16.36 9.91L4.97 21.25L2.86 19.14L10.27 11.74L8.5 9.96L7.78 10.66L6.33 9.25V12.11L5.63 12.81L2.11 9.25L2.81 8.55H5.62L4.22 7.14L7.78 3.58C8.95 2.41 10.83 2.41 12 3.58L9.89 5.74L11.3 7.14L10.59 7.85L12.38 9.63L14.2 7.75C14.06 7.42 14 7 14 6.63C14 4.66 15.56 3.11 17.5 3.11C18.09 3.11 18.61 3.25 19.08 3.53L16.41 6.2L17.91 7.7L20.58 5.03C20.86 5.5 21 6 21 6.63C21 8.55 19.45 10.1 17.5 10.1Z" /></svg>
